site/src/assets/images/logos/quicklink.svg

<svg height="453" viewBox="0 0 1204 453" width="1204" xmlns="http://www.w3.org/2000/svg"><g fill="none" fill-rule="evenodd"><g transform="translate(135 90)"><text style="font-family:GothamBlack-Italic, Gotham Black;font-size:175;font-style:italic;font-weight:700;letter-spacing:-6.917969;fill:#000"><tspan x="190.570122" y="196.65608">quicklink</tspan></text><g transform="translate(.200269 .65608)"><path d="m114.302909 166.625225-46.693238 46.412131c-12.8736533 12.795568-33.81785 12.795568-46.6932379 0l-7.7807608-7.735644c-12.87191771-12.795568-12.87191771-33.616564 0-46.412131l46.6932383-46.412132c12.8736529-12.7955672 33.8195847-12.7955672 46.6932384 0l7.782495 7.735645c6.236408 6.198232 9.670423 14.438828 9.670423 23.205198-.001735 8.76637-3.435751 17.0087-9.672158 23.206933zm-85.6022454 7.733909c-4.2912176 4.266925-4.2912176 11.2061 0 15.471289l7.7807603 7.735644c4.2912176 4.265189 11.2737733 4.265189 15.5649909 0l46.6932383-46.412131c2.0788019-2.066656 3.2223179-4.813521 3.2223179-7.735644s-1.143516-5.668989-3.2223179-7.73391l-7.7824959-7.737379c-4.2912176-4.265189-11.2720381-4.265189-15.5649908 0z" fill="#76ffd9" fill-rule="nonzero"/><path d="m76.8931381 203.755624c-6.2381427 6.198233-14.5290601 9.611425-23.3474867 9.611425-8.8201613 0-17.1110787-3.413192-23.3474863-9.61316l-7.7807603-7.733909c-6.2364081-6.198233-9.6704235-14.438829-9.6704235-23.205198 0-8.223244 3.0227666-15.984916 8.5442609-22.032184l-8.1399525 8.091366c-6.23467293 6.198232-9.67042302 14.440563-9.67042302 23.206933 0 8.766369 3.43401498 17.006965 9.67042302 23.205198l7.7824954 7.733909c6.2364076 6.199968 14.527325 9.613161 23.3457516 9.613161 8.8184262 0 17.1110787-3.413193 23.3474863-9.611426z" fill="#5de0bf"/><path d="m214.304073 67.2244502-46.693239 46.4138668c-6.236407 6.198232-14.527325 9.611425-23.347487 9.611425-8.818426 0-17.109343-3.413193-23.345751-9.613161l-7.782495-7.733909c-6.236408-6.1999679-9.670424-14.4388279-9.670424-23.2051979 0-8.7663691 3.435751-17.0087002 9.670424-23.2069329l46.693238-46.4121313c12.871918-12.7955677 33.819585-12.7955677 46.693238 0l7.782496 7.7356446c12.873652 12.7938326 12.873652 33.614828 0 46.4103957zm-85.603981 7.7356446c-2.078803 2.0666562-3.224053 4.8152566-3.224053 7.7373793 0 2.9203881 1.14525 5.6672534 3.224053 7.7339095l7.782496 7.7356442c2.078802 2.0666562 4.843019 3.2049652 7.782495 3.2049652 2.939475 0 5.703693-1.138309 7.782495-3.2049652l46.691503-46.4121313c4.291218-4.265189 4.291218-11.2043641 0-15.4712883l-7.78076-7.7339095c-4.291218-4.2669247-11.273773-4.2669247-15.564991-.0017351z" fill="#48587c" fill-rule="nonzero"/><path d="m214.304073 67.2244502-46.693239 46.4138668c-6.236407 6.198232-14.527325 9.611425-23.347487 9.611425-8.818426 0-17.109343-3.413193-23.345751-9.613161l-7.782495-7.733909c-6.236408-6.1999679-9.670424-14.4388279-9.670424-23.2051979 0-8.7663691 3.435751-17.0087002 9.670424-23.2069329l46.693238-46.4121313c12.871918-12.7955677 33.819585-12.7955677 46.693238 0l7.782496 7.7356446c12.873652 12.7938326 12.873652 33.614828 0 46.4103957zm-85.603981 7.7356446c-2.078803 2.0666562-3.224053 4.8152566-3.224053 7.7373793 0 2.9203881 1.14525 5.6672534 3.224053 7.7339095l7.782496 7.7356442c2.078802 2.0666562 4.843019 3.2049652 7.782495 3.2049652 2.939475 0 5.703693-1.138309 7.782495-3.2049652l46.691503-46.4121313c4.291218-4.265189 4.291218-11.2043641 0-15.4712883l-7.78076-7.7339095c-4.291218-4.2669247-11.273773-4.2669247-15.564991-.0017351z" fill="#76ffd9" fill-rule="nonzero"/><path d="m176.909919 104.299322c-6.224262 6.212115-14.508238 9.640924-23.326664 9.658276-8.820162.017353-17.11802-3.380223-23.366574-9.568044l-7.796377-7.7182921c-6.248555-6.1860866-9.698188-14.4197411-9.71554-23.1861107-.017352-8.2232434 2.991533-15.9918571 8.50088-22.047801l-8.124335 8.1052476c-6.224262 6.2103795-9.64266 14.4596514-9.625373 23.226021.017418 8.7663695 3.46705 17.0000241 9.71734 23.1861102l7.794642 7.720028c6.248554 6.187821 14.546412 9.583661 23.366574 9.566375 8.818426-.017418 17.102403-3.446228 23.328399-9.656608z" fill="#5de0bf"/><path d="m155.158841 85.7896498-68.8711808 68.4581972c-4.2981589 4.27213-11.2650972 4.27213-15.5632557 0-4.298159-4.27213-4.298159-11.199158 0-15.471289l68.8711815-68.4564618c4.298158-4.27213 11.265097-4.27213 15.563255 0 4.298159 4.2721304 4.298159 11.1991588 0 15.4695536z" fill="#5de0bf"/><path d="m155.158841 70.3200962c-4.298158-4.27213-11.265097-4.27213-15.563255 0l-14.492621 14.5533535c4.296423-4.2721305 11.266832-4.2721305 15.563256 0 3.951113 3.92682 4.259984 10.0920834.947434 14.3815659l13.545186-13.4653658c4.298159-4.2703948 4.298159-11.1974232 0-15.4695536z" fill="#76ffd9"/><path d="m85.3801361 139.848929c-4.2981585-4.27213-4.2981585-11.199159 0-15.471289l-14.6557316 14.400653c-4.298159 4.272131-4.298159 11.197424 0 15.469554 4.2981585 4.27213 11.2650968 4.27213 15.5632557 0l13.4809827-13.397692c-4.3120403 3.227523-10.4616867 2.901301-14.3885068-1.001226z" fill="#5de0bf"/><path d="m216.757684 18.3448256-7.782495-7.7356446c-6.881913-6.84200189-16.04565-10.609181-25.799364-10.609181-9.755449 0-18.919186 3.76717911-25.801098 10.609181l-46.691503 46.4121312c-6.899265 6.8576193-10.6994128 15.9745051-10.6994128 25.6744268 0 6.2485543 1.5877328 12.2472362 4.5532368 17.562238l-3.689093 3.668271c-5.3445011-2.949887-11.383093-4.5272084-17.6732932-4.5272084-9.755449 0-18.9174505 3.7671794-25.7993631 10.6091814l-46.6932379 46.412131c-6.88885361 6.847207-10.6820608 15.965828-10.6820608 25.676162 0 9.708598 3.79320719 18.827219 10.6820608 25.674426l7.7807603 7.73391c6.8836478 6.842002 16.0456492 10.609181 25.8010982 10.609181 9.753714 0 18.917451-3.767179 25.7993632-10.609181l46.6932385-46.412131c6.899265-6.855884 10.697678-15.974505 10.697678-25.674427 0-7.018995-2.000718-13.727385-5.717575-19.498752l2.904771-2.887419c5.807806 3.702976 12.557841 5.698487 19.621952 5.698487 9.745038 0 18.908775-3.772384 25.801099-10.624798l46.693238-46.4121309c6.888854-6.8454725 10.682061-15.9640934 10.682061-25.6744267 0-9.7103334-3.793207-18.8289542-10.682061-25.6744268zm-59.143496 49.5060421c-2.736453-2.7191017-6.371755-4.2166032-10.236107-4.2166032-.874555 0-1.733492.0798207-2.576813.2307852l33.045674-32.8478572c1.419416-1.4090048 3.310814-2.1863867 5.327148-2.1863867 2.016335 0 3.909468.7773819 5.328884 2.1881218l7.78076 7.7339091c1.414211 1.4055345 2.191593 3.2761096 2.191593 5.2664157 0 1.9920412-.777382 3.8626163-2.189857 5.2681508l-36.604626 36.3842512c1.419416-2.2644719 2.182917-4.881195 2.182917-7.6159136.001735-3.8556759-1.509648-7.4805661-4.249573-10.2048731zm-15.56499 4.9384574c1.422886-1.4142106 3.314284-2.1933277 5.327148-2.1933277 2.014599 0 3.905997.7791171 5.328884 2.1933277 1.415945 1.4072696 2.196798 3.2778447 2.196798 5.2664157 0 1.9885705-.780853 3.8574109-2.196798 5.2664152l-68.8711817 68.456462c-1.4228866 1.414211-3.3142844 2.191593-5.3288839 2.191593-2.012864 0-3.9059969-.777382-5.3271484-2.191593-1.4159456-1.40727-2.1967983-3.277845-2.1967983-5.266416 0-1.98857.7808527-3.859146 2.1967983-5.266415zm-73.7801406 83.9277509c2.7364537 2.719101 6.3717556 4.216603 10.236107 4.216603 2.7399244 0 5.3618533-.75656 7.6315309-2.162094l-36.5438921 36.325253c-1.4194163 1.409005-3.3108141 2.186387-5.3288839 2.186387-2.0163341 0-3.9094675-.777382-5.3271483-2.186387l-7.7824959-7.733909c-1.412475-1.405534-2.191592-3.276109-2.191592-5.26815 0-1.990307.779117-3.860882 2.191592-5.266416l33.0994656-32.899914c-.1527001.845056-.2342554 1.707464-.2342554 2.583753 0 3.857411 1.5079126 7.480566 4.2495721 10.204874zm52.2234086-13.298784c0 7.832817-3.069618 15.197123-8.643169 20.737704l-46.693238 46.412131c-5.5700802 5.535376-12.9881781 8.584171-20.8921397 8.584171-7.902226 0-15.322059-3.048795-20.8921396-8.584171l-7.7824954-7.735644c-5.5631398-5.53017-8.62755139-12.894476-8.62755139-20.735969 0-7.843229 3.06441159-15.207535 8.62755139-20.737704l46.6932379-46.413867c5.5700806-5.535376 12.9899136-8.584171 20.8921396-8.584171 4.3866552 0 8.6206105.947435 12.4745507 2.732984l-12.2576474 12.183032c-.0728793-.001735-.1440235-.008676-.2169033-.008676-3.8678221 0-7.5031239 1.495766-10.2361074 4.211397l-46.6932379 46.412132c-2.7381888 2.720836-4.2443663 6.345727-4.2443663 10.203138 0 3.859146 1.5061775 7.484036 4.2443663 10.204873l7.7824954 7.735644c2.7312484 2.715631 6.3665502 4.211397 10.2361074 4.211397 3.8695577 0 7.5048591-1.495766 10.2361074-4.211397l46.6915033-46.412131c2.741659-2.724307 4.251307-6.347463 4.251307-10.204873 0-1.016844-.111054-2.0146-.317547-2.988062l11.542734-11.471589c2.495257 4.360627 3.824442 9.30776 3.824442 14.459651zm91.356259-78.6613351-46.691502 46.4121311c-5.580492 5.545787-13.000325 8.599788-20.893876 8.599788-5.179654 0-10.154551-1.317038-14.539471-3.788002l11.51844-11.449032c.982139.208228 1.993777.321017 3.022767.321017 3.864352 0 7.499653-1.497501 10.236107-4.216602l46.693238-46.4121316c2.738189-2.7225719 4.244367-6.345727 4.244367-10.204873 0-3.8591461-1.507913-7.4823012-4.246102-10.2048731l-7.78076-7.7339091c-2.732984-2.7156314-6.368285-4.2113973-10.237843-4.2113973-3.867822 0-7.503124 1.4957659-10.236107 4.2096618l-46.691503 46.4121312c-2.741659 2.724307-4.251308 6.3491977-4.251308 10.2048731 0 .067674.006941.1336129.008677.2012864l-12.287147 12.2125317c-1.808107-3.8365882-2.769423-8.0497207-2.769423-12.4138181 0-7.8310818 3.069618-15.1971226 8.643169-20.7377045l46.693238-46.4121308c5.568345-5.5353761 12.988178-8.58417079 20.892139-8.58417079 7.902226 0 15.322059 3.04879469 20.89214 8.58417079l7.782496 7.7356442c5.563139 5.5301703 8.627551 12.894476 8.627551 20.7377045s-3.064412 15.2057991-8.629287 20.7377045z" fill="#434c54" fill-rule="nonzero"/></g></g><g fill="#434c54" fill-rule="nonzero"><path d="m360 130h247v7h-247z"/><path d="m351.381992 150.957985h143v7h-143z"/><path d="m332.381992 171.957985h117v7h-117z"/></g></g></svg>

<?xml version="1.0" encoding="UTF-8"?>
<svg width="1204px" height="453px" viewBox="0 0 1204 453" version="1.1" xmlns="http://www.w3.org/2000/svg" xmlns:xlink="http://www.w3.org/1999/xlink">
    <!-- Generator: Sketch 55.2 (78181) - https://sketchapp.com -->
    <title>v3@1.5x</title>
    <desc>Created with Sketch.</desc>
    <g id="v3" stroke="none" stroke-width="1" fill="none" fill-rule="evenodd">
        <g id="Group-2" transform="translate(135.000000, 90.000000)">
            <g id="core-logo">
                <text id="quicklink" font-family="GothamBlack-Italic, Gotham Black" font-size="175" font-style="italic" font-weight="700" letter-spacing="-6.917969" fill="#000000">
                    <tspan x="190.570122" y="196.65608">quicklink</tspan>
                </text>
                <g id="https://www.flaticon.com/free-icon/link_1299855#term=link&amp;page=1&amp;position=84" transform="translate(0.200269, 0.656080)">
                    <path d="M114.302909,166.625225 L67.609671,213.037356 C54.7360177,225.832924 33.791821,225.832924 20.9164331,213.037356 L13.1356723,205.301712 C0.263754587,192.506144 0.263754587,171.685148 13.1356723,158.889581 L59.8289106,112.477449 C72.7025635,99.6818818 93.6484953,99.6818818 106.522149,112.477449 L114.304644,120.213094 C120.541052,126.411326 123.975067,134.651922 123.975067,143.418292 C123.973332,152.184662 120.539316,160.426992 114.302909,166.625225 L114.302909,166.625225 Z M28.7006636,174.359134 C24.409446,178.626059 24.409446,185.565234 28.7006636,189.830423 L36.4814239,197.566067 C40.7726415,201.831256 47.7551972,201.831256 52.0464148,197.566067 L98.7396531,151.153936 C100.818455,149.08728 101.961971,146.340415 101.961971,143.418292 C101.961971,140.496169 100.818455,137.749303 98.7396531,135.684382 L90.9571572,127.947003 C86.6659396,123.681814 79.6851191,123.681814 75.3921664,127.947003 L28.7006636,174.359134 Z" id="Shape" fill="#76FFD9" fill-rule="nonzero"></path>
                    <path d="M76.8931381,203.755624 C70.6549954,209.953857 62.364078,213.367049 53.5456514,213.367049 C44.7254901,213.367049 36.4345727,209.953857 30.1981651,203.753889 L22.4174048,196.01998 C16.1809967,189.821747 12.7469813,181.581151 12.7469813,172.814782 C12.7469813,164.591538 15.7697479,156.829866 21.2912422,150.782598 L13.1512897,158.873964 C6.91661677,165.072196 3.48086668,173.314527 3.48086668,182.080897 C3.48086668,190.847266 6.91488166,199.087862 13.1512897,205.286095 L20.9337851,213.020004 C27.1701927,219.219972 35.4611101,222.633165 44.2795367,222.633165 C53.0979629,222.633165 61.3906154,219.219972 67.627023,213.021739 L76.8931381,203.755624 Z" id="Path" fill="#5DE0BF"></path>
                    <path d="M214.304073,67.2244502 L167.610834,113.638317 C161.374427,119.836549 153.083509,123.249742 144.263347,123.249742 C135.444921,123.249742 127.154004,119.836549 120.917596,113.636581 L113.135101,105.902672 C106.898693,99.7027041 103.464677,91.4638441 103.464677,82.6974741 C103.464677,73.931105 106.900428,65.6887739 113.135101,59.4905412 L159.828339,13.0784099 C172.700257,0.282842201 193.647924,0.282842201 206.521577,13.0784099 L214.304073,20.8140545 C227.177725,33.6078871 227.177725,54.4288825 214.304073,67.2244502 L214.304073,67.2244502 Z M128.700092,74.9600948 C126.621289,77.026751 125.476039,79.7753514 125.476039,82.6974741 C125.476039,85.6178622 126.621289,88.3647275 128.700092,90.4313836 L136.482588,98.1670278 C138.56139,100.233684 141.325607,101.371993 144.265083,101.371993 C147.204558,101.371993 149.968776,100.233684 152.047578,98.1670278 L198.739081,51.7548965 C203.030299,47.4897075 203.030299,40.5505324 198.739081,36.2836082 L190.958321,28.5496987 C186.667103,24.282774 179.684548,24.282774 175.39333,28.5479636 L128.700092,74.9600948 Z" id="Shape" fill="#48587C" fill-rule="nonzero"></path>
                    <path d="M214.304073,67.2244502 L167.610834,113.638317 C161.374427,119.836549 153.083509,123.249742 144.263347,123.249742 C135.444921,123.249742 127.154004,119.836549 120.917596,113.636581 L113.135101,105.902672 C106.898693,99.7027041 103.464677,91.4638441 103.464677,82.6974741 C103.464677,73.931105 106.900428,65.6887739 113.135101,59.4905412 L159.828339,13.0784099 C172.700257,0.282842201 193.647924,0.282842201 206.521577,13.0784099 L214.304073,20.8140545 C227.177725,33.6078871 227.177725,54.4288825 214.304073,67.2244502 L214.304073,67.2244502 Z M128.700092,74.9600948 C126.621289,77.026751 125.476039,79.7753514 125.476039,82.6974741 C125.476039,85.6178622 126.621289,88.3647275 128.700092,90.4313836 L136.482588,98.1670278 C138.56139,100.233684 141.325607,101.371993 144.265083,101.371993 C147.204558,101.371993 149.968776,100.233684 152.047578,98.1670278 L198.739081,51.7548965 C203.030299,47.4897075 203.030299,40.5505324 198.739081,36.2836082 L190.958321,28.5496987 C186.667103,24.282774 179.684548,24.282774 175.39333,28.5479636 L128.700092,74.9600948 Z" id="Shape" fill="#76FFD9" fill-rule="nonzero"></path>
                    <path d="M176.909919,104.299322 C170.685657,110.511437 162.401681,113.940246 153.583255,113.957598 C144.763093,113.974951 136.465235,110.577375 130.216681,104.389554 L122.420304,96.6712619 C116.171749,90.4851753 112.722116,82.2515208 112.704764,73.4851512 C112.687412,65.2619078 115.696297,57.4932941 121.205644,51.4373502 L113.081309,59.5425978 C106.857047,65.7529773 103.438649,74.0022492 103.455936,82.7686188 C103.473354,91.5349883 106.922986,99.7686429 113.173276,105.954729 L120.967918,113.674757 C127.216472,119.862578 135.51433,123.258418 144.334492,123.241132 C153.152918,123.223714 161.436895,119.794904 167.662891,113.584524 L176.909919,104.299322 Z" id="Path" fill="#5DE0BF"></path>
                    <path d="M155.158841,85.7896498 L86.2876602,154.247847 C81.9895013,158.519977 75.022563,158.519977 70.7244045,154.247847 C66.4262455,149.975717 66.4262455,143.048689 70.7244045,138.776558 L139.595586,70.3200962 C143.893744,66.0479662 150.860683,66.0479662 155.158841,70.3200962 C159.457,74.5922266 159.457,81.519255 155.158841,85.7896498 L155.158841,85.7896498 Z" id="Path" fill="#5DE0BF"></path>
                    <path d="M155.158841,70.3200962 C150.860683,66.0479662 143.893744,66.0479662 139.595586,70.3200962 L125.102965,84.8734497 C129.399388,80.6013192 136.369797,80.6013192 140.666221,84.8734497 C144.617334,88.8002697 144.926205,94.9655331 141.613655,99.2550156 L155.158841,85.7896498 C159.457,81.519255 159.457,74.5922266 155.158841,70.3200962 L155.158841,70.3200962 Z" id="Path" fill="#76FFD9"></path>
                    <path d="M85.3801361,139.848929 C81.0819776,135.576799 81.0819776,128.64977 85.3801361,124.37764 L70.7244045,138.778293 C66.4262455,143.050424 66.4262455,149.975717 70.7244045,154.247847 C75.022563,158.519977 81.9895013,158.519977 86.2876602,154.247847 L99.7686429,140.850155 C95.4566026,144.077678 89.3069562,143.751456 85.3801361,139.848929 L85.3801361,139.848929 Z" id="Path" fill="#5DE0BF"></path>
                    <path d="M216.757684,18.3448256 L208.975189,10.609181 C202.093276,3.76717911 192.929539,0 183.175825,0 C173.420376,0 164.256639,3.76717911 157.374727,10.609181 L110.683224,57.0213122 C103.783959,63.8789315 99.9838112,72.9958173 99.9838112,82.695739 C99.9838112,88.9442933 101.571544,94.9429752 104.537048,100.257977 L100.847955,103.926248 C95.5034539,100.976361 89.464862,99.3990396 83.1746618,99.3990396 C73.4192128,99.3990396 64.2572113,103.166219 57.3752987,110.008221 L10.6820608,156.420352 C3.79320719,163.267559 -5.68434189e-14,172.38618 -5.68434189e-14,182.096514 C-5.68434189e-14,191.805112 3.79320719,200.923733 10.6820608,207.77094 L18.4628211,215.50485 C25.3464689,222.346852 34.5084703,226.114031 44.2639193,226.114031 C54.0176333,226.114031 63.1813703,222.346852 70.0632825,215.50485 L116.756521,169.092719 C123.655786,162.236835 127.454199,153.118214 127.454199,143.418292 C127.454199,136.399297 125.453481,129.690907 121.736624,123.91954 L124.641395,121.032121 C130.449201,124.735097 137.199236,126.730608 144.263347,126.730608 C154.008385,126.730608 163.172122,122.958224 170.064446,116.10581 L216.757684,69.6936791 C223.646538,62.8482066 227.439745,53.7295857 227.439745,44.0192524 C227.439745,34.308919 223.646538,25.1902982 216.757684,18.3448256 Z M157.614188,67.8508677 C154.877735,65.131766 151.242433,63.6342645 147.378081,63.6342645 C146.503526,63.6342645 145.644589,63.7140852 144.801268,63.8650497 L177.846942,31.0171925 C179.266358,29.6081877 181.157756,28.8308058 183.17409,28.8308058 C185.190425,28.8308058 187.083558,29.6081877 188.502974,31.0189276 L196.283734,38.7528367 C197.697945,40.1583712 198.475327,42.0289463 198.475327,44.0192524 C198.475327,46.0112936 197.697945,47.8818687 196.28547,49.2874032 L159.680844,85.6716544 C161.10026,83.4071825 161.863761,80.7904594 161.863761,78.0557408 C161.865496,74.2000649 160.354113,70.5751747 157.614188,67.8508677 L157.614188,67.8508677 Z M142.049198,72.7893251 C143.472084,71.3751145 145.363482,70.5959974 147.376346,70.5959974 C149.390945,70.5959974 151.282343,71.3751145 152.70523,72.7893251 C154.121175,74.1965947 154.902028,76.0671698 154.902028,78.0557408 C154.902028,80.0443113 154.121175,81.9131517 152.70523,83.322156 L83.8340483,151.778618 C82.4111617,153.192829 80.5197639,153.970211 78.5051644,153.970211 C76.4923004,153.970211 74.5991675,153.192829 73.178016,151.778618 C71.7620704,150.371348 70.9812177,148.500773 70.9812177,146.512202 C70.9812177,144.523632 71.7620704,142.653056 73.178016,141.245787 L142.049198,72.7893251 Z M68.2690574,156.717076 C71.0055111,159.436177 74.640813,160.933679 78.5051644,160.933679 C81.2450888,160.933679 83.8670177,160.177119 86.1366953,158.771585 L49.5928032,195.096838 C48.1733869,196.505843 46.2819891,197.283225 44.2639193,197.283225 C42.2475852,197.283225 40.3544518,196.505843 38.936771,195.096838 L31.1542751,187.362929 C29.7418001,185.957395 28.9626831,184.08682 28.9626831,182.094779 C28.9626831,180.104472 29.7418001,178.233897 31.1542751,176.828363 L64.2537407,143.928449 C64.1010406,144.773505 64.0194853,145.635913 64.0194853,146.512202 C64.0194853,150.369613 65.5273979,153.992768 68.2690574,156.717076 L68.2690574,156.717076 Z M120.492466,143.418292 C120.492466,151.251109 117.422848,158.615415 111.849297,164.155996 L65.156059,210.568127 C59.5859788,216.103503 52.1678809,219.152298 44.2639193,219.152298 C36.3616933,219.152298 28.9418603,216.103503 23.3717797,210.568127 L15.5892843,202.832483 C10.0261445,197.302313 6.96173291,189.938007 6.96173291,182.096514 C6.96173291,174.253285 10.0261445,166.888979 15.5892843,161.35881 L62.2825222,114.944943 C67.8526028,109.409567 75.2724358,106.360772 83.1746618,106.360772 C87.561317,106.360772 91.7952723,107.308207 95.6492125,109.093756 L83.3915651,121.276788 C83.3186858,121.275053 83.2475416,121.268112 83.1746618,121.268112 C79.3068397,121.268112 75.6715379,122.763878 72.9385544,125.479509 L26.2453165,171.891641 C23.5071277,174.612477 22.0009502,178.237368 22.0009502,182.094779 C22.0009502,185.953925 23.5071277,189.578815 26.2453165,192.299652 L34.0278119,200.035296 C36.7590603,202.750927 40.3943621,204.246693 44.2639193,204.246693 C48.133477,204.246693 51.7687784,202.750927 54.5000267,200.035296 L101.19153,153.623165 C103.933189,150.898858 105.442837,147.275702 105.442837,143.418292 C105.442837,142.401448 105.331783,141.403692 105.12529,140.43023 L116.668024,128.958641 C119.163281,133.319268 120.492466,138.266401 120.492466,143.418292 Z M211.848725,64.7569569 L165.157223,111.169088 C159.576731,116.714875 152.156898,119.768876 144.263347,119.768876 C139.083693,119.768876 134.108796,118.451838 129.723876,115.980874 L141.242316,104.531842 C142.224455,104.74007 143.236093,104.852859 144.265083,104.852859 C148.129435,104.852859 151.764736,103.355358 154.50119,100.636257 L201.194428,54.2241254 C203.932617,51.5015535 205.438795,47.8783984 205.438795,44.0192524 C205.438795,40.1601063 203.930882,36.5369512 201.192693,33.8143793 L193.411933,26.0804702 C190.678949,23.3648388 187.043648,21.8690729 183.17409,21.8690729 C179.306268,21.8690729 175.670966,23.3648388 172.937983,26.0787347 L126.24648,72.4908659 C123.504821,75.2151729 121.995172,78.8400636 121.995172,82.695739 C121.995172,82.763413 122.002113,82.8293519 122.003849,82.8970254 L109.716702,95.1095571 C107.908595,91.2729689 106.947279,87.0598364 106.947279,82.695739 C106.947279,74.8646572 110.016897,67.4986164 115.590448,61.9580345 L162.283686,15.5459037 C167.852031,10.0105276 175.271864,6.96173291 183.175825,6.96173291 C191.078051,6.96173291 198.497884,10.0105276 204.067965,15.5459037 L211.850461,23.2815479 C217.4136,28.8117182 220.478012,36.1760239 220.478012,44.0192524 C220.478012,51.8624809 217.4136,59.2250515 211.848725,64.7569569 Z" id="Shape" fill="#434C54" fill-rule="nonzero"></path>
                </g>
            </g>
            <rect id="Rectangle" fill="#434C54" fill-rule="nonzero" x="225" y="40" width="247" height="7"></rect>
            <rect id="Rectangle" fill="#434C54" fill-rule="nonzero" x="216.381992" y="60.9579849" width="143" height="7"></rect>
            <rect id="Rectangle" fill="#434C54" fill-rule="nonzero" x="197.381992" y="81.9579849" width="117" height="7"></rect>
        </g>
    </g>
</svg>
